src/svg/featured/google.svg

<svg fill="none" height="53" viewBox="0 0 154 53" width="154" xmlns="http://www.w3.org/2000/svg"><g fill="#fff"><path d="m19.9802 18.1177v5.3277l12.7333-.0057c-.3907 2.9385-1.3815 5.0899-2.8875 6.596-1.8571 1.857-4.7559 3.9009-9.8458 3.9009-7.8472 0-13.9846-6.3242-13.9846-14.1714s6.1374-14.17137 13.9846-14.17137c4.235 0 7.3263 1.66456 9.608 3.80471l3.7594-3.75941c-3.1819-3.04037-7.4169-5.373017-13.3618-5.373017-10.74601 0-19.782187 8.753087-19.782187 19.499087 0 10.7461 9.036177 19.4991 19.782187 19.4991 5.7977 0 10.1742-1.9023 13.5996-5.4692 3.5216-3.5216 4.6143-8.4644 4.6143-12.4616 0-1.1889-.0906-2.2873-.2661-3.2158z"/><path d="m127.39 38.5v-36.80151h-5.379v36.80151z"/><g clip-rule="evenodd" fill-rule="evenodd"><path d="m52.9373 39.27c6.9413 0 12.5974-5.3277 12.5974-12.5578 0-7.281-5.6561-12.5578-12.5974-12.5578-6.9414 0-12.5975 5.2768-12.5975 12.5578 0 7.2301 5.6561 12.5578 12.5975 12.5578zm0-20.1672c3.8047 0 7.0828 3.0913 7.0828 7.6094 0 4.4671-3.2781 7.6094-7.0828 7.6094s-7.0829-3.1366-7.0829-7.6094c0-4.5181 3.2782-7.6094 7.0829-7.6094z"/><path d="m80.114 39.27c6.9414 0 12.5975-5.3277 12.5975-12.5578 0-7.281-5.6561-12.5578-12.5975-12.5578-6.9413 0-12.5974 5.2824-12.5974 12.5578 0 7.2301 5.6561 12.5578 12.5974 12.5578zm0-20.1672c3.8047 0 7.0829 3.0913 7.0829 7.6094 0 4.4671-3.2782 7.6094-7.0829 7.6094s-7.0828-3.1366-7.0828-7.6094c0-4.5181 3.2781-7.6094 7.0828-7.6094z"/><path d="m118.755 14.9188v22.5394c0 9.274-5.469 13.0617-11.935 13.0617-6.086 0-9.7491-4.0708-11.1306-7.3999l4.8016-1.9986c.855 2.0439 2.949 4.4558 6.324 4.4558 4.139 0 6.703-2.5534 6.703-7.3603v-1.8061h-.192c-1.234 1.523-3.612 2.8535-6.613 2.8535-6.279 0-12.0314-5.4692-12.0314-12.5068 0-7.0885 5.7524-12.6031 12.0314-12.6031 2.995 0 5.373 1.3305 6.613 2.8083h.192v-2.0439zm-4.846 11.8387c0-4.4218-2.95-7.6547-6.704-7.6547-3.804 0-6.992 3.2329-6.992 7.6547 0 4.3766 3.188 7.5641 6.992 7.5641 3.754 0 6.704-3.1875 6.704-7.5641z"/><path d="m148.35 30.8453 4.28 2.8536c-1.381 2.0439-4.711 5.5655-10.463 5.5655-7.134 0-12.461-5.5146-12.461-12.5578 0-7.4679 5.373-12.5578 11.844-12.5578 6.517 0 9.704 5.1862 10.746 7.9888l.572 1.4267-16.787 6.9527c1.285 2.5195 3.284 3.8047 6.086 3.8047 2.808 0 4.756-1.3815 6.183-3.4764zm-13.175-4.518 11.221-4.6597c-.617-1.5683-2.474-2.661-4.659-2.661-2.803 0-6.704 2.4742-6.562 7.3207z"/></g></g></svg>

<svg width="154" height="53" viewBox="0 0 154 53" fill="none" xmlns="http://www.w3.org/2000/svg">
<path d="M19.9802 18.1177V23.4454L32.7135 23.4397C32.3228 26.3782 31.332 28.5296 29.826 30.0357C27.9689 31.8927 25.0701 33.9366 19.9802 33.9366C12.133 33.9366 5.9956 27.6124 5.9956 19.7652C5.9956 11.918 12.133 5.59383 19.9802 5.59383C24.2152 5.59383 27.3065 7.25839 29.5882 9.39854L33.3476 5.63913C30.1657 2.59876 25.9307 0.266113 19.9858 0.266113C9.23979 0.266113 0.203613 9.0192 0.203613 19.7652C0.203613 30.5113 9.23979 39.2643 19.9858 39.2643C25.7835 39.2643 30.16 37.362 33.5854 33.7951C37.107 30.2735 38.1997 25.3307 38.1997 21.3335C38.1997 20.1446 38.1091 19.0462 37.9336 18.1177H19.9802Z" fill="white"/>
<path d="M127.39 38.5V1.69849H122.011V38.5H127.39Z" fill="white"/>
<path fill-rule="evenodd" clip-rule="evenodd" d="M52.9373 39.27C59.8786 39.27 65.5347 33.9423 65.5347 26.7122C65.5347 19.4312 59.8786 14.1544 52.9373 14.1544C45.9959 14.1544 40.3398 19.4312 40.3398 26.7122C40.3398 33.9423 45.9959 39.27 52.9373 39.27ZM52.9373 19.1028C56.742 19.1028 60.0201 22.1941 60.0201 26.7122C60.0201 31.1793 56.742 34.3216 52.9373 34.3216C49.1326 34.3216 45.8544 31.185 45.8544 26.7122C45.8544 22.1941 49.1326 19.1028 52.9373 19.1028Z" fill="white"/>
<path fill-rule="evenodd" clip-rule="evenodd" d="M80.114 39.27C87.0554 39.27 92.7115 33.9423 92.7115 26.7122C92.7115 19.4312 87.0554 14.1544 80.114 14.1544C73.1727 14.1544 67.5166 19.4368 67.5166 26.7122C67.5166 33.9423 73.1727 39.27 80.114 39.27ZM80.114 19.1028C83.9187 19.1028 87.1969 22.1941 87.1969 26.7122C87.1969 31.1793 83.9187 34.3216 80.114 34.3216C76.3093 34.3216 73.0312 31.185 73.0312 26.7122C73.0312 22.1941 76.3093 19.1028 80.114 19.1028Z" fill="white"/>
<path fill-rule="evenodd" clip-rule="evenodd" d="M118.755 14.9188V37.4582C118.755 46.7322 113.286 50.5199 106.82 50.5199C100.734 50.5199 97.0709 46.4491 95.6894 43.12L100.491 41.1214C101.346 43.1653 103.44 45.5772 106.815 45.5772C110.954 45.5772 113.518 43.0238 113.518 38.2169V36.4108H113.326C112.092 37.9338 109.714 39.2643 106.713 39.2643C100.434 39.2643 94.6816 33.7951 94.6816 26.7575C94.6816 19.669 100.434 14.1544 106.713 14.1544C109.708 14.1544 112.086 15.4849 113.326 16.9627H113.518V14.9188H118.755ZM113.909 26.7575C113.909 22.3357 110.959 19.1028 107.205 19.1028C103.401 19.1028 100.213 22.3357 100.213 26.7575C100.213 31.1341 103.401 34.3216 107.205 34.3216C110.959 34.3216 113.909 31.1341 113.909 26.7575Z" fill="white"/>
<path fill-rule="evenodd" clip-rule="evenodd" d="M148.35 30.8453L152.63 33.6989C151.249 35.7428 147.919 39.2644 142.167 39.2644C135.033 39.2644 129.706 33.7498 129.706 26.7066C129.706 19.2387 135.079 14.1488 141.55 14.1488C148.067 14.1488 151.254 19.335 152.296 22.1376L152.868 23.5643L136.081 30.517C137.366 33.0365 139.365 34.3217 142.167 34.3217C144.975 34.3217 146.923 32.9402 148.35 30.8453ZM135.175 26.3273L146.396 21.6676C145.779 20.0993 143.922 19.0066 141.737 19.0066C138.934 19.0066 135.033 21.4808 135.175 26.3273Z" fill="white"/>
</svg>
